小程序/已发货.svg

<svg width="16" height="18">
  <path fill="#000" fill-rule="evenodd" d="M14.4114372 3.68164062c.3873717.17708422.6834299.42887207.8881836.7553711.2047536.32649903.3071289.68896285.3071289 1.08740234v6.72363284c0 .420575-.110676.7996402-.3320313 1.137207-.2213552.3375668-.5091128.5948884-.8632812.7719727l-5.67773439 2.8388672c-.13281317.0664065-.27392504.1189776-.42333985.1577148-.14941481.0387372-.31266187.0581055-.48974609.0581055-.14388093 0-.29882729-.0193683-.46484375-.0581055-.16601646-.0387372-.31542902-.0913083-.44824219-.1577148l-5.67773437-2.8388672c-.38737173-.1770843-.68342997-.4427066-.8881836-.796875-.20475362-.3541685-.3071289-.724933-.3071289-1.1123047V5.52441406c0-.39843949.09960838-.76090331.29882812-1.08740234.19921975-.32649903.47590969-.57828688.83007813-.7553711L6.82452312.84277344c.32096515-.14388093.65022618-.21582031.98779297-.21582031s.64469263.07193938.92138672.2158203l5.67773439 2.83886719zM7.53839031 2.03808594l-1.69335938.86328125 5.51171877 2.75585937 1.9921875-.99609375-5.24609377-2.62304687c-.03320329-.03320329-.07193988-.05257159-.11621093-.05810547-.04427106-.00553388-.09960905-.00830078-.16601563-.00830078-.03320329 0-.08024058.0027669-.14111328.00830078-.0608727.00553388-.10790999.02490218-.14111328.05810547zm.28222656 5.39550781L9.7962028 6.4375 4.28448406 3.68164062l-1.9921875.97949219 5.52832031 2.77246094zM1.79424968 12.9619141l5.3125 2.6064453V8.62890625L1.44561687 5.80664062v6.50781248c0 .1106777.03320279.2268874.09960938.3486328.06640658.1217454.14941356.2213538.24902343.2988282zm11.96972652 0c.143881-.0774744.25179-.1687821.3237305-.2739258.0719405-.1051438.1079102-.2296542.1079102-.3735352V5.80664062L8.53448406 8.62890625v6.93945315l5.22949214-2.6064453z"/>
</svg>

<?xml version="1.0" encoding="UTF-8"?>
<svg width="16px" height="18px" viewBox="0 0 16 18" version="1.1" xmlns="http://www.w3.org/2000/svg" xmlns:xlink="http://www.w3.org/1999/xlink">
    <!-- Generator: Sketch 50 (54983) - http://www.bohemiancoding.com/sketch -->
    <title>已发货</title>
    <desc>Created with Sketch.</desc>
    <defs></defs>
    <g id="Page-1" stroke="none" stroke-width="1" fill="none" fill-rule="evenodd">
        <g id="已发货" fill="#000000">
            <path d="M14.4114372,3.68164062 C14.7988089,3.85872484 15.0948671,4.11051269 15.2996208,4.43701172 C15.5043744,4.76351075 15.6067497,5.12597457 15.6067497,5.52441406 L15.6067497,12.2480469 C15.6067497,12.6686219 15.4960737,13.0476871 15.2747184,13.3852539 C15.0533632,13.7228207 14.7656056,13.9801423 14.4114372,14.1572266 L8.73370281,16.9960938 C8.60088964,17.0625003 8.45977777,17.1150714 8.31036296,17.1538086 C8.16094815,17.1925458 7.99770109,17.2119141 7.82061687,17.2119141 C7.67673594,17.2119141 7.52178958,17.1925458 7.35577312,17.1538086 C7.18975666,17.1150714 7.0403441,17.0625003 6.90753093,16.9960938 L1.22979656,14.1572266 C0.84242483,13.9801423 0.54636659,13.71452 0.34161296,13.3603516 C0.13685934,13.0061831 0.03448406,12.6354186 0.03448406,12.2480469 L0.03448406,5.52441406 C0.03448406,5.12597457 0.13409244,4.76351075 0.33331218,4.43701172 C0.53253193,4.11051269 0.80922187,3.85872484 1.16339031,3.68164062 L6.82452312,0.84277344 C7.14548827,0.69889251 7.4747493,0.62695313 7.81231609,0.62695313 C8.14988288,0.62695313 8.45700872,0.69889251 8.73370281,0.84277343 L14.4114372,3.68164062 Z M7.53839031,2.03808594 L5.84503093,2.90136719 L11.3567497,5.65722656 L13.3489372,4.66113281 L8.10284343,2.03808594 C8.06964014,2.00488265 8.03090355,1.98551435 7.9866325,1.97998047 C7.94236144,1.97444659 7.88702345,1.97167969 7.82061687,1.97167969 C7.78741358,1.97167969 7.74037629,1.97444659 7.67950359,1.97998047 C7.61863089,1.98551435 7.5715936,2.00488265 7.53839031,2.03808594 Z M7.82061687,7.43359375 L9.7962028,6.4375 L4.28448406,3.68164062 L2.29229656,4.66113281 L7.82061687,7.43359375 Z M1.79424968,12.9619141 L7.10674968,15.5683594 L7.10674968,8.62890625 L1.44561687,5.80664062 L1.44561687,12.3144531 C1.44561687,12.4251308 1.47881966,12.5413405 1.54522625,12.6630859 C1.61163283,12.7848313 1.69463981,12.8844397 1.79424968,12.9619141 Z M13.7639762,12.9619141 C13.9078572,12.8844397 14.0157662,12.793132 14.0877067,12.6879883 C14.1596472,12.5828445 14.1956169,12.4583341 14.1956169,12.3144531 L14.1956169,5.80664062 L8.53448406,8.62890625 L8.53448406,15.5683594 L13.7639762,12.9619141 Z" id="Shape"></path>
        </g>
    </g>
</svg>
